X: 10031
T: Diamond Mountain, The
R: reel
M: 4/4
K: Dmajor
Aa(3aaa a2(3ggg|g2(3fff feed|d2(3fff f2(3eee|e2(3ddd dBBA|
A2(3ddd dBBA|A2(3eee eBBA|A2(3fff f2(3eee|e2(3ddd dBBA|
A2(3ddd dBBA|A2(3eee eBBA|A2(3fff f2(3eee|e2(3ddd dBBA:|
Be(3eee eBBA|Bf(3fff fBBA|Be(3eee eBBA|Bffe eddB|
Be(3eee eBBA|Bf(3fff fBBA|Af(3fff fe(3eee|ed(3ddd dBBA|
Be(3eee eBBA|Bf(3fff fBBA|Be(3eee eBBA|Bggf feed|
Be(3eee eBBA|Bf(3fff fBBA|Af(3fff fe(3eee|ed(3ddd dBBA|

